img/logo-grey-single-color.svg

<?xml version="1.0" encoding="UTF-8"?>
<svg width="54px" height="30px" viewBox="0 0 54 30" version="1.1" xmlns="http://www.w3.org/2000/svg" xmlns:xlink="http://www.w3.org/1999/xlink">
    <!-- Generator: Sketch 46.2 (44496) - http://www.bohemiancoding.com/sketch -->
    <title>logo/logo-grey-single-color</title>
    <desc>Created with Sketch.</desc>
    <defs></defs>
    <g id="Symbols" stroke="none" stroke-width="1" fill="none" fill-rule="evenodd">
        <g id="logo/logo-grey-single-color" fill="#D3E0EB">
            <g id="logo/grey-single-color">
                <path d="M37.3295508,29.5708092 C37.4021869,29.5649133 37.4749967,29.5591908 37.547459,29.5531214 C37.6604098,29.5439306 37.7717967,29.5342197 37.8835311,29.5245087 C40.0085705,29.3379191 42.0307377,29.0578613 43.8363869,28.6458382 C43.9230984,28.6257225 44.0106787,28.6059538 44.0961738,28.5853179 C44.1430918,28.5740462 44.1893148,28.5624277 44.236059,28.5509827 C46.2964557,28.0416763 47.9719508,27.3627746 49.3141541,26.4768208 C49.3370918,26.4615607 49.3600295,26.4459538 49.3829672,26.4303468 C49.4307541,26.3982659 49.4783672,26.3658382 49.525459,26.3330636 C49.5529148,26.3141618 49.580023,26.2947399 49.6073049,26.2753179 C49.6707311,26.2302312 49.7339836,26.1849711 49.7958459,26.1386705 C49.7961934,26.1383237 49.796541,26.1381503 49.7968885,26.1378035 C50.0373869,25.9581503 50.2658951,25.7706936 50.4808492,25.5785549 C50.9312623,25.1760694 51.0400426,24.8821387 50.1989934,25.220289 C49.900282,25.340289 49.5271967,25.4347977 49.1760066,25.5230636 C48.6661639,25.6512139 48.0821213,25.7334104 47.4172754,25.7424277 C43.7467213,25.7925434 39.3188754,23.0516185 36.7495049,19.5586127 C34.9645344,17.1319075 33.8901115,13.7838728 32.364059,10.5591329 C32.1845541,10.1800578 31.7124197,10.0413295 31.3582754,10.266763 C28.6415475,11.9953179 26.368977,14.2957803 24.5247508,16.3222543 C18.6504393,22.7771098 15.6125836,24.252659 10.9741279,24.7907514 C7.48777049,25.1953179 5.12761967,24.183815 3.7235541,23.2623121 C3.42588525,23.067052 3.30667869,23.2936994 3.45073443,23.4700578 C3.81460984,23.9157225 4.25737705,24.4002312 4.76044262,24.8793642 C5.44283934,25.5008671 6.1327082,26.0183237 6.7610623,26.4384971 C9.55077377,28.142948 13.4333279,29.8069942 27.4053443,29.8690751 C31.1895443,29.8808671 34.4790197,29.793815 37.3295508,29.5708092" id="Fill-10"></path>
                <path d="M30.372823,7.08624277 C30.0635115,6.52109827 29.4574,5.7683237 29.1241082,5.38803468 C27.5987508,3.64786127 25.626977,2.19554913 22.9177213,1.29294798 C22.8228426,1.26069364 22.7236197,1.22930636 22.6238754,1.19791908 C22.5637508,1.17919075 22.5044951,1.15959538 22.4436754,1.14138728 C22.2648656,1.08763006 22.0808426,1.03508671 21.8869148,0.983930636 C14.9048164,-0.856820809 9.95114098,0.151213873 5.16967213,4.42387283 C1.82459016,7.41294798 0.63582623,10.8756069 0.326340984,12.2321965 C-0.191321311,14.5017919 0.123029508,16.6742775 0.738003279,18.5328902 C0.926544262,19.1027168 1.36114426,20.0139884 2.60655738,21.2157225 C3.61529508,22.1890751 4.69128197,22.8898266 6.29865902,23.2656069 C6.30387213,23.2668208 6.31047541,23.267341 6.31603607,23.2685549 C7.49871803,23.5701156 8.9552623,23.6283815 10.8135639,23.4128324 C15.9934885,22.8117919 18.1435508,20.1837572 22.8445639,15.0178613 C24.2543639,13.4689595 26.4690689,11.0178035 28.8097574,9.06589595 C29.1409639,8.78965318 29.7665377,8.33583815 30.2272033,8.00757225 C30.5406852,7.78421965 30.5917738,7.48647399 30.372823,7.08624277" id="Fill-11"></path>
                <path d="M35.9352164,13.0815607 C36.7331705,15.2543931 37.6162721,17.1256647 38.7445639,18.6596532 C40.2289115,20.6776301 42.768741,23.34 46.1298098,24.1508671 C47.9314623,24.5856069 49.1372557,24.5944509 50.0439902,24.3213295 C50.4718131,24.1763584 50.7627049,24.0475145 51.0589836,23.8323121 C51.1747148,23.7480347 51.3696852,23.5834682 51.4795082,23.4603468 C51.5528393,23.3781503 51.6246066,23.2890173 51.6941148,23.1950289 C51.7288689,23.1482081 51.7629279,23.1 51.7966393,23.0509249 C52.1323639,22.5606936 52.4077902,21.9804624 52.559318,21.5930636 C52.5810393,21.5377457 52.6015443,21.4810405 52.6208328,21.4236416 C52.6272623,21.4049133 52.6329967,21.3856647 52.6390787,21.366763 C52.6517639,21.3277457 52.6644492,21.2885549 52.6760918,21.2488439 C52.6825213,21.2268208 52.6886033,21.2044509 52.694859,21.1822543 C52.699377,21.1663006 52.7466426,21.0182081 52.783482,20.8591908 C52.8321377,20.6495376 52.8738426,20.4083237 52.8903508,20.3020231 C52.9216295,20.1003468 52.9435246,19.8501156 52.9463049,19.8072832 C52.9610754,19.6449711 52.961423,19.4406936 52.9610754,19.4323699 C52.7801803,15.350289 50.3307115,10.722659 45.8943508,8.88208092 C41.8081377,7.1866474 38.2267279,7.37930636 35.0863475,8.48445087 C34.7273377,8.61069364 34.519682,8.96080925 34.6451443,9.31942197 C35.0820033,10.5688439 35.527377,11.9705202 35.9352164,13.0815607" id="Fill-12"></path>
            </g>
        </g>
    </g>
</svg>

<svg width="54" height="30" viewBox="0 0 54 30" xmlns="http://www.w3.org/2000/svg"><g fill="#D3E0EB" fill-rule="evenodd"><path d="M37.33 29.57c.072-.005.145-.01.217-.017l.337-.028c2.125-.187 4.147-.467 5.952-.88.087-.02.175-.039.26-.06l.14-.034c2.06-.51 3.736-1.188 5.078-2.074a7.995 7.995 0 0 0 .211-.144l.082-.058a9.51 9.51 0 0 0 .189-.136v-.001c.241-.18.47-.367.685-.56.45-.402.559-.696-.282-.358-.299.12-.672.215-1.023.303a7.62 7.62 0 0 1-1.759.22c-3.67.05-8.098-2.691-10.667-6.184-1.785-2.427-2.86-5.775-4.386-9a.7.7 0 0 0-1.006-.292c-2.716 1.728-4.989 4.029-6.833 6.055-5.875 6.455-8.912 7.93-13.55 8.469-3.487.404-5.847-.607-7.251-1.529-.298-.195-.417.032-.273.208.364.446.806.93 1.31 1.41a17.059 17.059 0 0 0 2 1.558c2.79 1.705 6.672 3.369 20.644 3.431 3.785.012 7.074-.075 9.925-.298"/><path d="M30.373 7.086c-.31-.565-.916-1.318-1.249-1.698-1.525-1.74-3.497-3.192-6.206-4.095a13.69 13.69 0 0 0-.294-.095l-.18-.057a16.86 16.86 0 0 0-.557-.157C14.905-.856 9.95.15 5.17 4.424 1.825 7.413.636 10.876.326 12.232c-.517 2.27-.203 4.442.412 6.3.189.57.623 1.482 1.869 2.684 1.008.973 2.084 1.674 3.692 2.05l.017.003c1.183.301 2.64.36 4.498.144 5.18-.601 7.33-3.23 12.03-8.395 1.41-1.549 3.625-4 5.966-5.952.331-.276.957-.73 1.417-1.058.314-.224.365-.522.146-.922m5.562 5.996c.798 2.172 1.681 4.044 2.81 5.578 1.484 2.018 4.024 4.68 7.385 5.49 1.801.436 3.007.444 3.914.171.428-.145.719-.273 1.015-.489.116-.084.31-.249.42-.372a3.738 3.738 0 0 0 .318-.41 7.78 7.78 0 0 0 .762-1.457c.022-.055.043-.112.062-.17l.018-.056.037-.118.019-.067c.004-.016.052-.164.088-.323.05-.21.09-.45.107-.557.032-.202.054-.452.056-.495.015-.162.015-.366.015-.375-.18-4.082-2.63-8.71-7.067-10.55-4.086-1.695-7.667-1.503-10.808-.398-.359.127-.566.477-.44.835.436 1.25.881 2.652 1.29 3.763"/></g></svg>
